packages/icons/plugins/Web3Profile.svg

<svg width="31" height="22" viewBox="0 0 31 22" xmlns="http://www.w3.org/2000/svg">
<g width="31" height="22" view-box="0 0 31 22" fill="none" xmlns="http://www.w3.org/2000/svg">
        <path
            d="M15.1006 17.3672L12.4614 5.34792L9.79132 17.3672H5.22283L0.5 0.867188H5.22283L7.84662 12.7048L10.2698 0.867188H14.7302L17.2923 12.7502L19.9161 0.867188H24.5L19.6228 17.3672H15.1006Z"
            fill="url(#paint0_linear_2445_5783)"
        />
        <path
            d="M22.5439 9.84107C22.161 10.2697 21.9776 10.8424 21.9935 11.5591H18.8111C18.843 10.8357 18.9905 10.1492 19.2537 9.49947C19.5329 8.93015 19.9716 8.40436 20.5698 7.92211C21.0165 7.58052 21.5469 7.3193 22.161 7.13845C22.7752 6.95761 23.5289 6.86719 24.4222 6.86719C26.0813 6.86719 27.4172 7.22888 28.4302 7.95225C29.4511 8.66893 29.9616 9.63343 29.9616 10.8458C29.9616 11.7031 29.6585 12.4265 29.0523 13.0159C28.6695 13.3843 28.2707 13.6354 27.8559 13.7694C28.167 13.7694 28.6137 13.9938 29.1959 14.4425C30.0653 15.119 30.5 16.0433 30.5 17.2155C30.5 18.4479 29.9895 19.533 28.9686 20.4707C27.9556 21.4017 26.4521 21.8672 24.4581 21.8672C22.0015 21.8672 20.2946 21.194 19.3375 19.8478C18.835 19.1311 18.5558 18.1934 18.5 17.0346H21.85C21.85 17.6174 21.9616 18.0996 22.1849 18.4814C22.5997 19.1847 23.3534 19.5363 24.4462 19.5363C25.1162 19.5363 25.6984 19.3454 26.1929 18.9636C26.6954 18.5752 26.9467 18.0192 26.9467 17.2959C26.9467 16.3381 26.484 15.6984 25.5588 15.3769C25.0324 15.1961 24.2029 15.1056 23.0703 15.1056V13.0561C24.179 13.0427 24.9526 12.9523 25.3913 12.7848C26.1491 12.5035 26.5279 11.9342 26.5279 11.0768C26.5279 10.5209 26.3325 10.0688 25.9417 9.7205C25.5588 9.37221 25.0165 9.19807 24.3146 9.19807C23.509 9.19807 22.9187 9.4124 22.5439 9.84107Z"
            fill="url(#paint1_linear_2445_5783)"
        />
        <defs>
            <linearGradient
                id="paint0_linear_2445_5783"
                x1="12.5"
                y1="0.867187"
                x2="12.5"
                y2="17.3672"
                gradient-units="userSpaceOnUse">
                <stop stop-color="#0041B9" />
                <stop offset="1" stop-color="#1C68F3" />
            </linearGradient>
            <linearGradient
                id="paint1_linear_2445_5783"
                x1="18.5"
                y1="14.3672"
                x2="30.5"
                y2="14.3672"
                gradient-units="userSpaceOnUse">
                <stop stop-color="#43E97B" />
                <stop offset="1" stop-color="#38F9D7" />
            </linearGradient>
        </defs>
    </g>
</svg>

<svg xmlns="http://www.w3.org/2000/svg" width="31" height="22">
    <g xmlns="http://www.w3.org/2000/svg" fill="none">
        <path fill="url(#Web3Profile_svg__a)" d="m15.1 17.367-2.639-12.02-2.67 12.02H5.223L.5.867h4.723l2.624 11.838L10.27.867h4.46l2.562 11.883L19.916.867H24.5l-4.877 16.5H15.1Z"/>
        <path fill="url(#Web3Profile_svg__b)" d="M22.544 9.841c-.383.429-.566 1.001-.55 1.718H18.81c.032-.723.18-1.41.443-2.06.279-.569.718-1.095 1.316-1.577a4.843 4.843 0 0 1 1.591-.784c.614-.18 1.368-.27 2.261-.27 1.66 0 2.995.36 4.008 1.084 1.021.717 1.532 1.681 1.532 2.894 0 .857-.303 1.58-.91 2.17-.383.368-.781.62-1.196.753.311 0 .758.225 1.34.674.87.676 1.304 1.6 1.304 2.772 0 1.233-.51 2.318-1.531 3.256-1.013.93-2.517 1.396-4.51 1.396-2.457 0-4.164-.673-5.122-2.02-.502-.716-.781-1.654-.837-2.812h3.35c0 .582.112 1.065.335 1.446.415.704 1.168 1.055 2.261 1.055.67 0 1.252-.19 1.747-.572.502-.389.754-.945.754-1.668 0-.958-.463-1.598-1.388-1.92-.527-.18-1.356-.27-2.489-.27v-2.05c1.109-.013 1.883-.104 2.321-.271.758-.281 1.137-.85 1.137-1.708 0-.556-.195-1.008-.586-1.357-.383-.348-.925-.522-1.627-.522-.806 0-1.396.214-1.771.643Z"/>
        <defs>
            <linearGradient id="Web3Profile_svg__a" x1="12.5" x2="12.5" y1=".867" y2="17.367">
                <stop stop-color="#0041B9"/>
                <stop offset="1" stop-color="#1C68F3"/>
            </linearGradient>
            <linearGradient id="Web3Profile_svg__b" x1="18.5" x2="30.5" y1="14.367" y2="14.367">
                <stop stop-color="#43E97B"/>
                <stop offset="1" stop-color="#38F9D7"/>
            </linearGradient>
        </defs>
    </g>
</svg>
